X: 39373
T: Tana
R: reel
M: 4/4
K: Eminor
BeeB dg3|G2 GB Ad2c|B2 BA GA (3BAG|c2 BG A2 (3ABc|
BeeB dg3|G2 GB Ad2c|B2 BA GA (3BAG|c2 BG A2 Aa||
a-b (3agf f-g2d|(3efg dB A2 AB|G2 dB AB/A/ GA|Beef efga|
bagf agfg|(3efg dB A3B|G2 dB AB/A/ GA|Beef e4||

